packages/kaspersky-hexa-ui-icons/src/iconsSVGs/16/CheckedInv1.svg

<svg width="16" height="16" viewBox="0 0 16 16" fill="none" xmlns="http://www.w3.org/2000/svg">
<path d="M10.8175 6.98011C11.0714 6.72627 11.0714 6.31471 10.8175 6.06087C10.5637 5.80703 10.1521 5.80703 9.89829 6.06086L7.38588 8.57324L6.0888 7.34692C5.82795 7.1003 5.41655 7.11183 5.16993 7.37269C4.9233 7.63355 4.93484 8.04494 5.19569 8.29157L6.95203 9.95209C7.20773 10.1938 7.60938 10.1882 7.8582 9.93939L10.8175 6.98011Z" fill="black"/>
<path fill-rule="evenodd" clip-rule="evenodd" d="M5.5001 3.3501C4.31269 3.3501 3.3501 4.31269 3.3501 5.5001V10.5001C3.3501 11.6875 4.31269 12.6501 5.5001 12.6501H10.5001C11.6875 12.6501 12.6501 11.6875 12.6501 10.5001V5.5001C12.6501 4.31269 11.6875 3.3501 10.5001 3.3501H5.5001ZM4.6501 5.5001C4.6501 5.03066 5.03066 4.6501 5.5001 4.6501H10.5001C10.9695 4.6501 11.3501 5.03066 11.3501 5.5001V10.5001C11.3501 10.9695 10.9695 11.3501 10.5001 11.3501H5.5001C5.03066 11.3501 4.6501 10.9695 4.6501 10.5001V5.5001Z" fill="black"/>
</svg>

<svg xmlns="http://www.w3.org/2000/svg" width="16" height="16" fill="none" viewBox="0 0 16 16"><path fill="#000" d="M10.8175 6.9801a.65.65 0 1 0-.9192-.9192L7.3859 8.5732 6.0888 7.347a.65.65 0 1 0-.8931.9447L6.952 9.952a.65.65 0 0 0 .9062-.0127z"/><path fill="#000" fill-rule="evenodd" d="M5.5001 3.3501c-1.1874 0-2.15.9626-2.15 2.15v5c0 1.1874.9626 2.15 2.15 2.15h5c1.1874 0 2.15-.9626 2.15-2.15v-5c0-1.1874-.9626-2.15-2.15-2.15zm-.85 2.15a.85.85 0 0 1 .85-.85h5a.85.85 0 0 1 .85.85v5a.85.85 0 0 1-.85.85h-5a.85.85 0 0 1-.85-.85z" clip-rule="evenodd"/></svg>
